svgs/sync.svg

<svg width="192" height="192" viewBox="0 0 192 192" fill="none" xmlns="http://www.w3.org/2000/svg"><path d="m64 96 50-74 50 74H64Z" stroke="#000" stroke-width="12" stroke-linecap="round" stroke-linejoin="round"/><path d="m64 96 32-47 32 47H64ZM128 96l-50 74-50-74h100Z" stroke="#000" stroke-width="12" stroke-linecap="round" stroke-linejoin="round"/><path d="m128 96-32 47-32-47h64Z" stroke="#000" stroke-width="12" stroke-linecap="round" stroke-linejoin="round"/></svg>

<svg width="192" height="192" viewBox="0 0 192 192" fill="none" xmlns="http://www.w3.org/2000/svg">
<path d="M64 96L114 22L164 96H120H64Z" stroke="black" stroke-width="12" stroke-linecap="round" stroke-linejoin="round"/>
<path d="M64 96L96 49L128 96H99.84H64Z" stroke="black" stroke-width="12" stroke-linecap="round" stroke-linejoin="round"/>
<path d="M128 96L78 170L28 96H72H128Z" stroke="black" stroke-width="12" stroke-linecap="round" stroke-linejoin="round"/>
<path d="M128 96L96 143L64 96H92.16H128Z" stroke="black" stroke-width="12" stroke-linecap="round" stroke-linejoin="round"/>
</svg>
